svgs/background.svg

<svg enable-background="new 0 0 50 50" height="50" viewBox="0 0 50 50" width="50" xmlns="http://www.w3.org/2000/svg"><g fill="#fff"><path d="m33 29.2c1.2.4 2.5.1 3.4-.8 1.3-1.3 1.3-3.5 0-4.8s-3.5-1.3-4.8 0l-17.6-17.8c1.3-1.4 1.3-3.5 0-4.8s-3.5-1.3-4.8 0c-.9.9-1.2 2.3-.8 3.4-1.1-.4-2.4-.1-3.4.8-1.3 1.3-1.3 3.5 0 4.8 1.2 1.2 3.1 1.3 4.4.3l17.8 17.9c-1 1.3-.9 3.2.3 4.4 1.3 1.3 3.5 1.3 4.8 0 .9-.9 1.1-2.2.7-3.4z"/><path d="m33.1 45.7c-1.3-1-3.2-.9-4.4.3-1.1 1.1-1.3 2.7-.6 4h9.9l12-12.1v-9.2z"/><path d="m37.6 0h-9.8c.2.3.3.6.6.8.9.9 2.3 1.2 3.4.8-.4 1.2-.1 2.5.8 3.4 1.3 1.3 3.5 1.3 4.8 0s1.3-3.5 0-4.8z"/><path d="m10.3 27.6c-.9-.9-2.3-1.2-3.4-.8.3-1.1.1-2.5-.9-3.4-1.3-1.3-3.5-1.3-4.8 0-1.2 1.2-1.3 3.1-.3 4.4l-.9 1v9.2l5.5-5.5c1.3 1.3 3.5 1.3 4.8 0 1.3-1.4 1.3-3.6 0-4.9z"/></g></svg>

<?xml version="1.0" encoding="utf-8"?>
<!-- Generator: Adobe Illustrator 19.2.1, SVG Export Plug-In . SVG Version: 6.00 Build 0)  -->
<svg version="1.1" id="Layer_1" xmlns="http://www.w3.org/2000/svg" xmlns:xlink="http://www.w3.org/1999/xlink" x="0px" y="0px"
	 width="50px" height="50px" viewBox="0 0 50 50" enable-background="new 0 0 50 50" xml:space="preserve">
<path fill="#FFFFFF" d="M33,29.2c1.2,0.4,2.5,0.1,3.4-0.8c1.3-1.3,1.3-3.5,0-4.8s-3.5-1.3-4.8,0L14,5.8c1.3-1.4,1.3-3.5,0-4.8
	s-3.5-1.3-4.8,0C8.3,1.9,8,3.3,8.4,4.4C7.3,4,6,4.3,5,5.2C3.7,6.5,3.7,8.7,5,10c1.2,1.2,3.1,1.3,4.4,0.3l17.8,17.9
	c-1,1.3-0.9,3.2,0.3,4.4c1.3,1.3,3.5,1.3,4.8,0C33.2,31.7,33.4,30.4,33,29.2z"/>
<g>
	<path fill="#FFFFFF" d="M33.1,45.7c-1.3-1-3.2-0.9-4.4,0.3c-1.1,1.1-1.3,2.7-0.6,4H38l12-12.1v-9.2L33.1,45.7z"/>
</g>
<path fill="#FFFFFF" d="M37.6,0h-9.8c0.2,0.3,0.3,0.6,0.6,0.8c0.9,0.9,2.3,1.2,3.4,0.8c-0.4,1.2-0.1,2.5,0.8,3.4
	c1.3,1.3,3.5,1.3,4.8,0s1.3-3.5,0-4.8L37.6,0z"/>
<path fill="#FFFFFF" d="M10.3,27.6c-0.9-0.9-2.3-1.2-3.4-0.8C7.2,25.7,7,24.3,6,23.4c-1.3-1.3-3.5-1.3-4.8,0
	c-1.2,1.2-1.3,3.1-0.3,4.4l-0.9,1V38l5.5-5.5c1.3,1.3,3.5,1.3,4.8,0C11.6,31.1,11.6,28.9,10.3,27.6z"/>
</svg>
